!!!!SEGMENT: pl-cz--d-ii-29--004_elsner-jozef--msza-f-op-35-credo.krn
!!!id: 18xx:182
!!!COM: Elsner, Józef
!!!COM-rism: pe30000957
!!!CDT: 1769/06/01-1854/04/18
!!!CNT: Polish
!!!OTL: Msza F op. 35 - Credo
!!!PDT:
!!!SMS-siglum: PL-CZ
!!!SMS-shelfmark: D II-29
!!!NIFC-rismID:
!!!URL-scan: http://repozytorium.nifc.pl/skany/pl-cz-nut--dii-29
!!!ONB-nifc: UWAGA: części Mszy: Kyrie, Gloria, Graduale, Credo, Offertorium, Sanctus, Agnus Dei
**kern	**kern	**kern	**text	**text	**text	**dynam	**kern	**text	**dynam	**kern	**text	**dynam	**kern	**text	**dynam
*part5	*part5	*part4	*part4	*part4	*part4	*	*part3	*part3	*	*part2	*part2	*	*part1	*part1	*
*staff6	*staff5	*staff4	*staff4	*staff4	*staff4	*	*staff3	*staff3	*	*staff2	*staff2	*	*staff1	*staff1	*
*I"ORGAN	*	*I"BASSO	*	*	*	*	*I"TENORE	*	*	*I"ALTO	*	*	*I"CANTO	*	*
*I'Org	*	*I'B	*	*	*	*	*I'T	*	*	*I'A	*	*	*I'C	*	*
*group2	*group2	*group1	*	*	*	*	*group1	*	*	*group1	*	*	*group1	*	*
*clefF4	*clefG2	*clefF4	*	*	*	*	*clefC4	*	*	*clefC3	*	*	*clefC1	*	*
*k[b-]	*k[b-]	*k[b-]	*	*	*	*	*k[b-]	*	*	*k[b-]	*	*	*k[b-]	*	*
*M6/8	*M6/8	*M6/8	*	*	*	*	*M6/8	*	*	*M6/8	*	*	*M6/8	*	*
!	!LO:TX:B:t=Andantino	!	!	!	!	!	!	!	!	!	!	!	!LO:TX:B:t=Andantino	!	!
8r	8r	8D\	Wie-	Że	Ten	.	8A\	Wie-	.	8d\	Wie-	.	8f/	Wie-	.
4r	4r	4D\	-rze-	nie-	Smier-	.	4A\	-rze-	.	4d\	-rze-	.	4f/	-rze-	.
8r	8r	8D\	-my	-śmier	-cią	.	8A\	-my	.	8d\	-my	.	8f/	-my	.
=1	=1	=1	=1	=1	=1	=1	=1	=1	=1	=1	=1	=1	=1	=1	=1
2.D\	2.A/ 2.d 2.f	8.D\	wBo-	teŁ-	Swo-	.	8.A\	wBo-	.	8.d\	wBo-	.	8.f/	wBo-	.
.	.	16D\	-ga	-ność	-ią	.	16A\	-ga	.	16d\	-ga	.	16f/	-ga	.
.	.	8D\	ie-	u	ród	.	8A\	ie-	.	8d\	ie-	.	8f/	ie-	.
.	.	8.D\	-dne-	Bo-	lu-	.	8.A\	-dne-	.	8.d\	-dne-	.	8.f/	-dne-	.
.	.	16D\	-go	-ga	-dzki	.	16A\	-go	.	16d\	-go	.	16f/	-go	.
.	.	8D\	na	nas	wy-	.	8A\	na	.	8d\	na	.	8f/	na	.
=2	=2	=2	=2	=2	=2	=2	=2	=2	=2	=2	=2	=2	=2	=2	=2
*	*^	*	*	*	*	*	*	*	*	*	*	*	*	*	*
4.C\	4.e/ 4.g	4c\	4.C/	wie-	cze-	-ba-	.	4c\	wie-	>	4.e\	wie-	>	4.g/	wie-	>
.	.	8B-\	.	.	.	.	.	8B-\	.	]	.	.	]	.	.	]
(4F\	8f/L	8A\L	4F\	-ki	-ka	-wił	.	4A\	-ki	.	4f\	-ki	.	4f/	-ki	.
.	8a/	8c\	.	.	.	.	.	.	.	.	.	.	.	.	.	.
8E\	8g/J	8c#X\J	8r	.	.	.	.	8r	.	.	8r	.	.	8r	.	.
*	*v	*v	*	*	*	*	*	*	*	*	*	*	*	*	*	*
=3	=3	=3	=3	=3	=3	=3	=3	=3	=3	=3	=3	=3	=3	=3	=3
4D\)	4d/ 4f	4r	.	.	.	.	4r	.	.	4r	.	.	4r	.	.
8r	8r	8D\	Co	Dla	J	.	8d\	Co	.	8f\	Co	.	8a\	Co	.
4r	4r	4D\	ka-	któ-	Krwią	.	4d\	ka-	.	4f\	ka-	.	4a\	ka-	.
8r	8r	8D\	-rze	-rey	do	.	8d\	-rze	.	8f\	-rze	.	8a\	-rze	.
=4	=4	=4	=4	=4	=4	=4	=4	=4	=4	=4	=4	=4	=4	=4	=4
2.D\	(2.d/ 2.f 2.a	8.D\	zdro-	czy-	nie-	.	8.d\	zdbro-	.	8.f\	zbro-	.	8.a\	zbro-	.
.	.	16D\	-dnie	-niem	-ba	.	16d\	-dnie	.	16f\	-dnie	.	16a\	-dnie	.
.	.	8D\	a	na	o	.	8d\	a	.	8f\	a	.	8a\	a	.
.	.	8.D\	cno-	zie-	zna-	.	8.d\	cno-	.	8.f\	cno-	.	8.a\	cno-	.
.	.	16D\	-ty	-mi	-czył	.	16d\	-ty	.	16f\	-ty	.	16a\	-ty	.
.	.	8D\	na-	o-	nam	.	8d\	na-	.	8f\	na-	.	8a\	na-	.
=5	=5	=5	=5	=5	=5	=5	=5	=5	=5	=5	=5	=5	=5	=5	=5
*	*^	*	*	*	*	*	*	*	*	*	*	*	*	*	*
*	*	*^	*	*	*	*	*	*	*	*	*	*	*	*	*	*
2.AA/	2.e/) 2.a	4.d\	4.ryy	2.AA/	-gra-	-fia-	sla-	.	4.d\	-gra-	.	2.e\	-gra-	.	4.a\	-gra-	.
.	.	4.c#X\	4a/	.	.	.	.	.	4.c#X\	.	.	.	.	.	(4a\	.	.
.	.	.	8g/	.	.	.	.	.	.	.	.	.	.	.	8g\)	.	.
*	*v	*v	*v	*	*	*	*	*	*	*	*	*	*	*	*	*	*
=6	=6	=6	=6	=6	=6	=6	=6	=6	=6	=6	=6	=6	=6	=6	=6
!!LO:PB:g=original
4BB-/	4d/ 4f	4BB-/	-dza	-ry	-dy	.	4d\	-dza	.	4d\	-dza	.	4f/	-dza	.
8BB-/	8d/ 8f 8b-	8BB-/	Swiat	Ze	A	.	8d\	Swiat	.	8f\	Swiat	.	8b-\	Swiat	.
4BB-/	4d/ 4f 4b-	4BB-/	ca-	Sy-	po	.	4d\	ca-	.	4f\	ca-	.	4b-\	ca-	.
8BB-/	8d/ 8f 8b-	8BB-/	-ły	-na	bo-	.	8d\	-ły	.	8f\	-ły	.	8b-\	-ły	.
=7	=7	=7	=7	=7	=7	=7	=7	=7	=7	=7	=7	=7	=7	=7	=7
2.BB-/	2.d/ 2.f 2.b-	8.BB-/	zie-	swe-	-że-	.	8.d\	zie-	.	8.f\	zie-	.	8.b-\	zie-	.
.	.	16BB-/	-go	-go	-mu	.	16d\	-go	.	16f\	-go	.	16b-\	-go	.
.	.	8BB-/	i-	chciał	na	.	8d\	i-	.	8f\	i-	.	8b-\	i-	.
!	!	!	!	!	!	!	!	!	!	!LO:N:vis=8	!	!	!LO:N:vis=8	!	!
.	.	8.BB-/	-stnie-	wcie-	wie-	.	8.d\	-stnie-	.	8.f\	-stnie-	.	8b.-\	-stnie-	.
.	.	.	.	.	.	.	.	.	.	.	.	.	.	.	.
!	!	!	!	!	!	!	!	!	!	!LO:N:vis=16.	!	!	!LO:N:vis=16.	!	!
.	.	16BB-/	-ie	-lic	-ki	.	16d\	-ie	.	16f	-ie	.	16b-\	-ie	.
.	.	.	.	.	.	.	.	.	.	.	.	.	.	.	.
.	.	8BB-/	o-	wczło-	zo-	.	8d\	o-	.	8f\	o-	.	8b-\	o-	.
=8	=8	=8	=8	=8	=8	=8	=8	=8	=8	=8	=8	=8	=8	=8	=8
*	*^	*	*	*	*	*	*	*	*	*	*	*	*	*	*
*	*	*^	*	*	*	*	*	*	*	*	*	*	*	*	*	*
4.BB-/	4.d\	4f/	4.dd/	4.BB-/	-pie-	-wie-	-sta-	.	4.d\	-pie-	.	(4f\	-pie-	.	4.dd\	-pie-	.
.	.	8g/	.	.	.	.	.	.	.	.	.	8g\	.	.	.	.	.
4AA/	4e\	4a/	4cc#X/	4AA/	-ki	-ka	-wił	.	4e\	-ki	.	4a\)	-ki	.	4cc#\	-ki	.
8AA/	8c#X/ 8e 8a	8ryy	8ryy	8r	.	.	.	.	8r	.	.	8r	.	.	8r	.	.
*	*v	*v	*v	*	*	*	*	*	*	*	*	*	*	*	*	*	*
=9	=9	=9	=9	=9	=9	=9	=9	=9	=9	=9	=9	=9	=9	=9	=9
8.AA/L	4.c#X/ 4.e 4.a	4r	.	.	.	.	4r	.	.	4r	.	.	4r	.	.
16C#X/K	.	.	.	.	.	.	.	.	.	.	.	.	.	.	.
8E/J	.	8A\	Wmi-	Co	Na-	.	8c\	Wmi-	.	8e\	Wmi-	.	8a\	Wmi-	.
4A\	4c#/ 4e 4a	4A\	-ło-	nas	-u-	.	4c\	-ło-	.	4e\	-ło-	.	4a\	-ło-	.
8r	8r	8A\	-ści	na-	-ki	.	8c\	-ści	.	8e\	-ści	.	8a\	-ści	.
=10	=10	=10	=10	=10	=10	=10	=10	=10	=10	=10	=10	=10	=10	=10	=10
*	*^	*	*	*	*	*	*	*	*	*	*	*	*	*	*
4.G\	4.c#X/ 4.e 4.b-	2ryy	8.G\	Je-	-u-	swię-	.	8.c\	Je-	.	8.e\	Je-	.	8.b-\	Je-	.
.	.	.	16G\	-go	-czył	-te	.	16c\	-go	.	16e\	-go	.	16b-\	-go	.
.	.	.	8G\	i	mi-	i	.	8c\	i	.	8e\	i	.	8b-\	i	.
8.F\L	8.a/L	.	8.F\	mą-	-ło-	swię-	.	8.d\	mą-	.	8.d\	mą-	.	8.a/	mą-	.
!	!	!LO:N:vis=4.	!	!	!	!	!	!	!	!	!	!	!	!	!	!
.	.	4d\	.	.	.	.	.	.	.	.	.	.	.	.	.	.
16E\K	16g/	.	16E\	-drość	-ści	-te	.	16A\	-drość	.	16d\	-drość	.	16g/	-drość	.
8D\J	8f/J	.	8D\	i	i	przy-	.	8A\	i	.	8d\	i	.	8f/	i	.
=11	=11	=11	=11	=11	=11	=11	=11	=11	=11	=11	=11	=11	=11	=11	=11	=11
*^	*	*	*	*	*	*	*	*	*	*	*	*	*	*	*	*
2.AA\	4.A/	2e/	4.d\	2.AA/	wła-	wia-	-kła-	.	4.A\	wła-	.	(4.d\	wła-	.	2.e/	wła-	.
.	4A/	.	4.c#X\	.	.	.	.	.	4A\	.	.	4.c#X\)	.	.	.	.	.
.	.	4ryy	.	.	.	.	.	.	.	.	.	.	.	.	.	.	.
.	8G/	.	.	.	.	.	.	.	8G\	.	.	.	.	.	.	.	.
*	*	*v	*v	*	*	*	*	*	*	*	*	*	*	*	*	*	*
=12	=12	=12	=12	=12	=12	=12	=12	=12	=12	=12	=12	=12	=12	=12	=12	=12
4DD\ 4D	4F/ 4A	4d/	4D\	-dza	-ry	-dy	.	4F/	-dza	.	4d\	-dza	.	4d/	-dza	.
*v	*v	*	*	*	*	*	*	*	*	*	*	*	*	*	*	*
==	==	==	==	==	==	==	==	==	==	==	==	==	==	==	==
*-	*-	*-	*-	*-	*-	*-	*-	*-	*-	*-	*-	*-	*-	*-	*-
!!!system-decoration: [g1]{g2}
!!!ENC: Berenika Jozajtis
!!!END: 2020-03-02
